X: 158
T: No_23_Corn_Dance_Song_(m).krn
N: Derived from No_23_Corn_Dance_Song_(m).krn
%%abc-version 2.0
%%abcx-abcm2ps-target-version 5.9.1 (29 Sep 2008)
%%abc-creator hum2abc beta
%%abcx-conversion-date 2019/03/15 08:38:45
%%humdrum-veritas 983910063
%%humdrum-veritas-data 3987701950
%%linebreak <none>
%%barnumbers 0
L: 1/4
M: 3/4
K: F clef=bass
[K:clef=bass][M:3/4]CCA,3//A,// ]|:  
[M:2/4]C2 | 
CD3//C// | 
A,2 | 
A,2 ||  
[M:3/4]A,A,C ||  
[M:2/4]CG, | 
G,2 | 
D,E,/D,/8D,/8 ||  
[M:3/4]D,2C, | 
A,,A,,A,, ||  
[M:2/4]C,A,, | 
C,A,,3//A,,// | 
C,D,3//D,// | 
C,2 | 
C,2 | 
C,C, ||  
[M:3/4]D,D,D, ||  
[M:2/4]D,2 | 
D,E,3//E,// ||  
[M:3/4]D,2C, ||  
[M:2/4]A,,A,, ||  
[M:3/4]C,C,A,, ||  
[M:2/4]C,z | 
C,D,3//D,// | 
C,2 | 
C,z | 
C,C, ||  
[M:3/4]CCA, :|]  



